assets/img/braze_icons/underline-01.svg

<svg fill="none" height="24" viewBox="0 0 24 24" width="24" xmlns="http://www.w3.org/2000/svg"><g clip-rule="evenodd" fill="#801ed7" fill-rule="evenodd"><path d="m3 21c0-.5523.44772-1 1-1h16c.5523 0 1 .4477 1 1s-.4477 1-1 1h-16c-.55228 0-1-.4477-1-1z"/><path d="m6 3c.55228 0 1 .44772 1 1v7c0 2.7614 2.23858 5 5 5 2.7614 0 5-2.2386 5-5v-7c0-.55228.4477-1 1-1s1 .44772 1 1v7c0 3.866-3.134 7-7 7-3.86599 0-7-3.134-7-7v-7c0-.55228.44772-1 1-1z"/></g></svg>

<svg width="24" height="24" viewBox="0 0 24 24" fill="none" xmlns="http://www.w3.org/2000/svg">
<path fill-rule="evenodd" clip-rule="evenodd" d="M3 21C3 20.4477 3.44772 20 4 20H20C20.5523 20 21 20.4477 21 21C21 21.5523 20.5523 22 20 22H4C3.44772 22 3 21.5523 3 21Z" fill="#801ED7"/>
<path fill-rule="evenodd" clip-rule="evenodd" d="M6 3C6.55228 3 7 3.44772 7 4V11C7 13.7614 9.23858 16 12 16C14.7614 16 17 13.7614 17 11V4C17 3.44772 17.4477 3 18 3C18.5523 3 19 3.44772 19 4V11C19 14.866 15.866 18 12 18C8.13401 18 5 14.866 5 11V4C5 3.44772 5.44772 3 6 3Z" fill="#801ED7"/>
</svg>
